!!!!SEGMENT: pl-kk--kk-i-7--041_anonim--gaude-maria-virgo.krn
!!!cenid: 16xx:840
!!!COM: Anonim
!!!COM-rismid: pe30004985
!!!CDT:
!!!CNT:
!!!OTL: Gaude Maria virgo
!!!PDT:
!!!AGN: Sacred
!!!SMS-siglum: PL-Kk
!!!SMS-shelfmark: Kk.I.7
!!!SMS-shelfwork: 041 W
!!!SMS-variant:
!!!SMS-altvar:
!!!NIFC-rismid: 300258118
!!!URL-scan: http://repozytorium.nifc.pl/skany/pl-kk-nut--i-7
!!!ONB-nifc: UWAGA: C (skan 0037, s.68-69), A (0121-0122, s.63-64), T(0197, s.59), B(0287-0288, s.61-62). Następny utwór: Veni sponsa Christi
!!!key:
**kern	**text	**kern	**text	**kern	**text	**kern	**text
*part4	*part4	*part3	*part3	*part2	*part2	*part1	*part1
*staff4	*staff4	*staff3	*staff3	*staff2	*staff2	*staff1	*staff1
*Ibass	*	*Itenor	*	*Ialto	*	*Isoprn	*
*I"BASSUS.	*	*I"TENOR.	*	*I"ALTVS.	*	*I"CANTVS.	*
*I'B	*	*I'T	*	*I'A	*	*I'S	*
*clefF4	*	*clefC4	*	*clefC3	*	*clefC1	*
*k[]	*	*k[]	*	*k[]	*	*k[]	*
*C:	*	*C:	*	*C:	*	*C:	*
*M2/1	*	*M2/1	*	*M2/1	*	*M2/1	*
*met(c|)	*	*met(c|)	*	*met(c|)	*	*met(c|)	*
=1	=1	=1	=1	=1	=1	=1	=1
!	!	!	!	!LO:TX:t=P:problem=kreska pseudotaktowa	!	!LO:TX:t=P:problem=kreska pseudotaktowa	!
2r	.	1G/	Gau-	0r	.	0r	.
1C/	Gau-	.	.	.	.	.	.
.	.	2A,</	-de	.	.	.	.
*2\right	*	*	*	*	*	*	*
!LO:TX:t=P:problem=kreska pseudotaktowa	!	!	!	!	!	!	!
2D\	-de	2.A/	gau-	.	.	.	.
=2-	=2-	=2-	=2-	=2-	=2-	=2-	=2-
!LO:TX:t=P:problem=kreska pseudotaktowa	!	!	!	!	!	!	!
1E\	gau-	.	.	2r	.	1g\	Gau-
.	.	4G/	.	.	.	.	.
*	*	*2\right	*	*	*	*	*
!	!	!LO:TX:t=P:problem=kreska pseudotaktowa	!	!	!	!	!
.	.	2c\	.	1c\	Gau-	.	.
*	*	*	*	*	*	*2\right	*
4F\	.	2A\	.	.	.	2a\	-de
4E\	.	.	.	.	.	.	.
!LO:TX:t=P:problem=kreska pseudotaktowa	!	!	!	!	!	!LO:TX:t=P:problem=nuta przekreslona	!
2D\	.	4d\	.	1d\	.	1bn\	Gau-
.	.	4c\	.	.	.	.	.
=3-	=3-	=3-	=3-	=3-	=3-	=3-	=3-
2G\	.	4B\	.	.	.	.	.
.	.	4A\	.	.	.	.	.
*	*	*	*	*2\right	*	*	*
!	!	!LO:TX:t=P:problem=kreska pseudotaktowa	!	!LO:TX:t=P:problem=kreska pseudotaktowa	!	!LO:TX:t=P:problem=nuta przekreslona	!
4F\	.	2G/	-de,	2e,<\	-de	1cc\	.
!LO:TX:t=P:problem=kreska pseudotaktowa	!	!	!	!	!	!	!
4E\	.	.	.	.	.	.	.
!LO:TX:t=P:problem=kreska pseudotaktowa	!	!LO:TX:t=P:problem=kreska pseudotaktowa	!	!	!	!	!
1F\	.	1r	.	4f\	gau-	.	.
.	.	.	.	4e\	.	.	.
.	.	.	.	4f\	.	1a\	.
.	.	.	.	4d\	.	.	.
=4-	=4-	=4-	=4-	=4-	=4-	=4-	=4-
4E\	de	2r	.	1e\	.	.	.
4D,<\	.	.	.	.	.	.	.
!	!	!	!	!	!	!LO:TX:t=P:problem=kreska pseudotaktowa	!
(4E\	Ma-	2E/	Ma-	.	.	2g,</	-de
4C\)	.	.	.	.	.	.	.
*	*	*	*	*	*	*	*ij
2D/	-ri-	2F/	-ri-	2.A/	-de	(4f/	Gau-
.	.	.	.	.	.	4e/	.
!LO:TX:t=P:problem=kreska pseudotaktowa	!	!LO:TX:t=P:problem=kreska pseudotaktowa	!	!	!	!	!
2D,</	-a	2D/	-a	.	.	4f/	.
!	!	!	!	!LO:TX:t=P:problem=kreska pseudotaktowa	!	!	!
.	.	.	.	4B/	.	4g/)	.
=5-	=5-	=5-	=5-	=5-	=5-	=5-	=5-
(4C/	Vir-	4E/	Vir-	2.c\	Ma-	2e,</	-de
*	*	*	*	*	*	*	*Xij
4D/	.	4F/	.	.	.	.	.
!	!	!	!	!	!	!LO:TX:t=P:problem=kreska pseudotaktowa	!
4C/)	.	1G/	.	.	.	2ee\	Ma-
!LO:TX:t=P:problem=kreska pseudotaktowa	!	!	!	!	!	!	!
4BB/	.	.	.	4d\	.	.	.
!LO:TX:t=P:problem=kreska pseudotaktowa	!	!	!	!	!	!	!
1AA/	.	.	.	(2e\	.	1cc\	-ri-
.	.	2F#X/	.	2a\)	.	.	.
=6-	=6-	=6-	=6-	=6-	=6-	=6-	=6-
!LO:TX:t=P:problem=kreska pseudotaktowa	!	!	!	!	!	!LO:TX:t=P:problem=kreska pseudotaktowa	!
1GG/	-go,	1G/	.	1d\	-ri-	1b\	-a
2r	.	2D,</	-go,	2e,<\	-a	2r	.
!	!	!LO:TX:t=P:problem=kreska pseudotaktowa	!	!	!	!	!
1C/	Ma-	2c\	Ma-	2e\	Ma-	1cc\	Ma-
=7-	=7-	=7-	=7-	=7-	=7-	=7-	=7-
.	.	2c\	-ri-	2e\	-ri-	.	.
!LO:TX:t=P:problem=kreska pseudotaktowa	!	!	!	!LO:TX:t=P:problem=kreska pseudotaktowa	!	!LO:TX:t=P:problem=kreska pseudotaktowa	!
2GG/	.	2d,<\	-a	2g\	-a	2b\	.
!	!	!LO:TX:t=P:problem=♮ above	!	!	!	!	!
(2D\	-ri-	2Bn/	Vir-	2f\	Vir-	2a\	-ri-
!LO:TX:t=P:problem=kreska pseudotaktowa	!	!LO:TX:t=P:problem=kreska pseudotaktowa	!	!	!	!LO:TX:t=P:problem=kreska pseudotaktowa	!
2G\)	-a	[2A/	.	2d,<\	-go	2g/	-a
=8-	=8-	=8-	=8-	=8-	=8-	=8-	=8-
*	*	*	*	*	*ij	*	*
!LO:TX:t=P:problem=kreska pseudotaktowa	!	!LO:TX:t=P:problem=kreska pseudotaktowa	!	!	!	!	!
1F\	Vir-	1A\]	.	(4f\	Vir-	(4a\	Vir-
.	.	.	.	4e\	.	4g\	.
.	.	.	.	4f\	.	4a\	.
!	!	!	!	!	!	!LO:TX:t=P:problem=kreska pseudotaktowa	!
.	.	.	.	4g\)	.	4b\)	.
!LO:TX:t=P:problem=kreska pseudotaktowa	!	!	!	!	!	!LO:TX:t=P:problem=kreska pseudotaktowa	!
1C/	-go,	2G,</	-go	2e,<\	-go	1cc\	-go
*	*	*	*	*	*Xij	*	*
.	.	2G/	Ma-	2g\	Ma-	.	.
=9-	=9-	=9-	=9-	=9-	=9-	=9-	=9-
!LO:TX:t=P:problem=kreska pseudotaktowa	!	!	!	!	!	!LO:TX:t=P:problem=kreska pseudotaktowa	!
1r	.	2A\	-ri-	(4f\	-ri-	1r	.
.	.	.	.	4e\	.	.	.
.	.	2B,<\	-a	4f\	.	.	.
!	!	!	!	!LO:TX:t=P:problem=kreska pseudotaktowa	!	!	!
.	.	.	.	4d\)	.	.	.
2r	.	1c\	Vir-	2e,<\	-a	2r	.
!LO:TX:t=P:problem=kreska pseudotaktowa	!	!	!	!	!	!	!
2C/	Gau-	.	.	2g\	Ma-	2cc\	gau-
=10-	=10-	=10-	=10-	=10-	=10-	=10-	=10-
!	!	!	!	!LO:SIC:v:t=custos f	!	!	!
!	!	!	!	!LO:TX:t=P:problem=kreska pseudotaktowa	!	!	!
2G,<\	-de	2d\	-go	1g\	-ri-	2b,<\	-de
!	!	!	!	!	!	!LO:SIC:v:t=custos dd	!
!LO:TX:t=P:problem=kreska pseudotaktowa	!	!LO:TX:t=P:problem=kreska pseudotaktowa	!	!	!	!LO:TX:t=P:problem=kreska pseudotaktowa	!
2C/	Ma-	2r	.	.	.	2g/	Ma-
!	!	!LO:TX:t=P:problem=kreska pseudotaktowa	!	!	!	!	!
(2D\	.	1r	.	2f,<\	-a	2dd\	-ri-
!LO:SIC:v:t=custos F	!	!	!	!LO:TX:t=P:problem=kreska pseudotaktowa	!	!	!
!LO:TX:t=P:problem=kreska pseudotaktowa	!	!	!	!	!	!	!
2E\)	.	.	.	2e\	Ma-	4cc\	.
!	!	!	!	!	!	!LO:TX:t=P:problem=kreska pseudotaktowa	!
.	.	.	.	.	.	4b\	.
=11-	=11-	=11-	=11-	=11-	=11-	=11-	=11-
2F\	-ri-	2r	.	2c/	-ri-	2a\	.
!	!	!	!	!	!	!LO:TX:t=P:problem=kreska pseudotaktowa	!
4E\	.	2G/	Ma-	2.e\	-a	2g,</	-a
!LO:TX:t=P:problem=kreska pseudotaktowa	!	!	!	!	!	!	!
4D\	.	.	.	.	.	.	.
2C/	.	2G/	-ri-	.	.	(1g\	Vir-
.	.	.	.	4f,<\	.	.	.
!LO:TX:t=P:problem=kreska pseudotaktowa	!	!	!	!	!	!	!
2E,<\	-a	2G,</	-a	1g\	Vir-	.	.
=12-	=12-	=12-	=12-	=12-	=12-	=12-	=12-
!LO:TX:t=P:problem=kreska pseudotaktowa	!	!	!	!	!	!	!
1D\	Vir-	1A\	Vir-	.	.	1dd\)	.
!	!	!	!	!LO:TX:t=P:problem=kreska pseudotaktowa	!	!	!
.	.	.	.	2f#X\	.	.	.
2GG,</	-go	2G/	-go	2g\	-go.	2b\	-go
!	!	!LO:TX:t=P:problem=kreska pseudotaktowa	!	!LO:TX:t=P:problem=kreska pseudotaktowa	!	!LO:TX:t=P:problem=kreska pseudotaktowa	!
4C/	cun-	2r	.	2r	.	2r	.
!LO:TX:t=P:problem=kreska pseudotaktowa	!	!	!	!	!	!	!
4D/	.	.	.	.	.	.	.
=13-	=13-	=13-	=13-	=13-	=13-	=13-	=13-
!	!	!LO:TX:t=P:problem=kreska pseudotaktowa	!	!	!	!LO:TX:t=P:problem=kreska pseudotaktowa	!
(4E\	.	1r	.	2r	.	0r	.
4D\	.	.	.	.	.	.	.
4E\)	.	.	.	2.c/	cun-	.	.
!LO:TX:t=P:problem=kreska pseudotaktowa	!	!	!	!	!	!	!
4C/	.	.	.	.	.	.	.
2F\	.	1c\	cun-	.	.	.	.
.	.	.	.	4d\	.	.	.
!LO:TX:t=P:problem=kreska pseudotaktowa	!	!	!	!	!	!	!
2C,</	-ctas	.	.	4e\	.	.	.
!	!	!	!	!LO:TX:t=P:problem=kreska pseudotaktowa	!	!	!
.	.	.	.	4c\	.	.	.
=14-	=14-	=14-	=14-	=14-	=14-	=14-	=14-
*	*ij	*	*	*	*	*	*
(4E\	cun-	2c,<\	-ctas	4e\	.	2.g\	cun-
4F\	.	.	.	4fny\	.	.	.
4E\)	.	4G/	cun-	2e\	.	.	.
!LO:TX:t=P:problem=kreska pseudotaktowa	!	!	!	!	!	!	!
4F\	.	4A/	.	.	.	4a,<\	-ctas
!LO:TX:t=P:problem=kreska pseudotaktowa	!	!	!	!	!	!	!
1G\	.	4B\	.	2d,<\	-ctas	4b\	cun-
.	.	4c\	.	.	.	4g\	.
.	.	2d\	.	2.g\	cun-	4a\	.
!	!	!	!	!	!	!LO:TX:t=P:problem=kreska pseudotaktowa	!
.	.	.	.	.	.	4b\	.
=15-	=15-	=15-	=15-	=15-	=15-	=15-	=15-
2C,</	-ctas	2c\	.	.	.	2cc\	.
*	*Xij	*	*	*	*	*	*
.	.	.	.	4f\	.	.	.
!	!	!LO:TX:t=P:problem=kreska pseudotaktowa	!	!	!	!LO:TX:t=P:problem=kreska pseudotaktowa	!
2.c\	Hae-	2G,</	-ctas	4g\	.	2cc\	-ctas
!	!	!	!	!LO:TX:t=P:problem=kreska pseudotaktowa	!	!	!
.	.	.	.	4a\	.	.	.
!	!	!	!	!LO:TX:t=P:problem=♮ above	!	!	!
.	.	2A\	Hae-	2fn,<\	-ctas	1dd\	Hae-
4c\	-re-	.	.	.	.	.	.
!LO:TX:t=P:problem=kreska pseudotaktowa	!	!	!	!	!	!	!
2B\	-ses	4B\	.	2.g\	Hae-	.	.
.	.	4G/	.	.	.	.	.
=16-	=16-	=16-	=16-	=16-	=16-	=16-	=16-
2c\	cun-	2.c\	.	.	.	2g/	.
.	.	.	.	4g\	-re-	.	.
!LO:TX:t=P:problem=kreska pseudotaktowa	!	!	!	!LO:TX:t=P:problem=kreska pseudotaktowa	!	!	!
2A,<\	-ctas	.	.	2f#X,<\	-ses	2.cc\	.
.	.	4c\	-re-	.	.	.	.
!	!	!LO:TX:t=P:problem=kreska pseudotaktowa	!	!	!	!	!
2.G\	hae-	1d\	-ses	2g\	cun-	.	.
.	.	.	.	.	.	4cc\	-re-
!	!	!	!	!	!	!LO:TX:t=P:problem=kreska pseudotaktowa	!
.	.	.	.	2g,<\	-ctas	2b,<\	-ſes
!LO:TX:t=P:problem=kreska pseudotaktowa	!	!	!	!	!	!	!
4G\	-re-	.	.	.	.	.	.
=17-	=17-	=17-	=17-	=17-	=17-	=17-	=17-
!	!	!LO:TX:t=P:problem=kreska pseudotaktowa	!	!	!	!	!
(2F\	-ses	1r	.	(4c\	hae-	2a\	hae-
.	.	.	.	4d\	.	.	.
!LO:TX:t=P:problem=kreska pseudotaktowa	!	!	!	!	!	!	!
2E\)	.	.	.	2.e\)	.	2g/	-re-
!	!	!	!	!	!	!LO:TX:t=P:problem=kreska pseudotaktowa	!
2r	.	2r	.	.	.	1g\	-ses
.	.	.	.	4e\	-re-	.	.
!LO:TX:t=P:problem=kreska pseudotaktowa	!	!	!	!LO:TX:t=P:problem=kreska pseudotaktowa	!	!	!
2C/	cun-	1c\	cun-	2e\	-ses	.	.
=18-	=18-	=18-	=18-	=18-	=18-	=18-	=18-
!	!	!	!	!LO:TX:t=P:problem=kreska pseudotaktowa	!	!	!
(2.G\	.	.	.	1r	.	2r	.
.	.	2B,<\	-ctas	.	.	2g/	cun-
!LO:TX:t=P:problem=kreska pseudotaktowa	!	!	!	!	!	!	!
4F\)	.	.	.	.	.	.	.
4E\	.	(4c\	/cun-	2g\	cun-	4a\	.
4D\	.	4G\)	.	.	.	4b\	.
!	!	!	!	!LO:SIC:v:t=custos g	!	!	!
!LO:TX:t=P:problem=kreska pseudotaktowa	!	!LO:TX:t=P:problem=kreska pseudotaktowa	!	!LO:TX:t=P:problem=kreska pseudotaktowa	!	!	!
2C/	-ctas	2G,</	-ctas/	2g\	-ctas	1cc\	.
=19-	=19-	=19-	=19-	=19-	=19-	=19-	=19-
2.GG/	hae-	2.G/	hae-	2.g\	hae-	.	.
!	!	!	!	!	!	!LO:SIC:v:t=custos cc	!
!	!	!	!	!	!	!LO:TX:t=P:problem=kreska pseudotaktowa	!
.	.	.	.	.	.	2b\	-ctas
4GG/	-re-	4G/	-re-	4g\	-re-	.	.
!LO:TX:t=P:problem=kreska pseudotaktowa	!	!LO:TX:t=P:problem=kreska pseudotaktowa	!	!LO:TX:t=P:problem=kreska pseudotaktowa	!	!	!
1C/,<	-ses	1G/	-ses	1e\	-ses	2.cc\	hae-
!	!	!	!	!	!	!LO:TX:t=P:problem=kreska pseudotaktowa	!
.	.	.	.	.	.	4cc\	-re-
=20-	=20-	=20-	=20-	=20-	=20-	=20-	=20-
!	!	!LO:TX:t=P:problem=kreska pseudotaktowa	!	!	!	!	!
2r	.	0r	.	2r	.	2cc\	-ses
!LO:TX:t=P:problem=kreska pseudotaktowa	!	!	!	!	!	!LO:TX:t=P:problem=kreska pseudotaktowa	!
2C/	so-	.	.	2e\	so-	2r	.
2F\	-la	.	.	2c,</	-la	2cc\	cun-
!LO:TX:t=P:problem=kreska pseudotaktowa	!	!	!	!	!	!	!
2D\	in-	.	.	(4fny\	in-	2dd,<\	-ctas
!	!	!	!	!LO:TX:t=P:problem=kreska pseudotaktowa	!	!	!
.	.	.	.	4d\)	.	.	.
=21-	=21-	=21-	=21-	=21-	=21-	=21-	=21-
4G\	-ter-	2r	.	4d\	te-	2b\	hae-
4E\	.	.	.	4e\	.	.	.
!LO:TX:t=P:problem=kreska pseudotaktowa	!	!LO:TX:t=P:problem=kreska pseudotaktowa	!	!	!	!	!
2A\	.	2c\	so-	2e\	-re-	2.cc\	.
2F\	.	2c,<\	-la	1f\	-mi-	.	.
.	.	.	.	.	.	4b\	-re-
!LO:TX:t=P:problem=kreska pseudotaktowa	!	!	!	!	!	!LO:TX:t=P:problem=kreska pseudotaktowa	!
2D\	e-	2d\	in-	.	.	2a\	-ſes
=22-	=22-	=22-	=22-	=22-	=22-	=22-	=22-
4E\	-mi-	4B\	-ter-	2e,<\	-sti	(2g/	so-
4C/	.	4c\	.	.	.	.	.
!LO:TX:t=P:problem=kreska pseudotaktowa	!	!LO:TX:t=P:problem=kreska pseudotaktowa	!	!	!	!	!
2D/	.	2A/	.	2d\	so-	2dd\)	.
!LO:TX:t=P:problem=kreska pseudotaktowa	!	!	!	!	!	!	!
1GG/,<	-sti,	2G/	.	2d,<\	-la	2b,<\	-la
!	!	!	!	!LO:TX:t=P:problem=kreska pseudotaktowa	!	!LO:TX:t=P:problem=kreska pseudotaktowa	!
.	.	2d\	-e-	2g\	in-	2b\	in-
=23-	=23-	=23-	=23-	=23-	=23-	=23-	=23-
2r	.	4e\	-mi-	2g\	-te-	2cc\	-te-
.	.	4c\	.	.	.	.	.
!LO:TX:t=P:problem=kreska pseudotaktowa	!	!LO:TX:t=P:problem=kreska pseudotaktowa	!	!	!	!	!
2G\	so-	2d\	.	2g\	-re-	2b\	-re-
(4A\	-la	2c,<\	-sti,	4e\	.	2a\	.
4F,<\)	.	.	.	4f\	.	.	.
!LO:TX:t=P:problem=kreska pseudotaktowa	!	!	!	!	!	!	!
2G\	in-	2B\	in-	4d\	.	4b\	.
!	!	!	!	!LO:TX:t=P:problem=kreska pseudotaktowa	!	!LO:TX:t=P:problem=kreska pseudotaktowa	!
.	.	.	.	[<4g\	.	4dd\	.
=24-	=24-	=24-	=24-	=24-	=24-	=24-	=24-
2C/	-ter-	2c\	-te-	2g\]	.	2cc\	-mi-
!LO:TX:t=P:problem=kreska pseudotaktowa	!	!LO:TX:t=P:problem=kreska pseudotaktowa	!	!	!	!	!
2G\	-e-	2G/	-re-	2g\	.	2b\	.
4C/	-mi-	2G/	-mi-	2g\	mi-	4cc\	.
4E/	.	.	.	.	.	4g/	.
!LO:TX:t=P:problem=kreska pseudotaktowa	!	!	!	!LO:TX:t=P:problem=kreska pseudotaktowa	!	!LO:TX:t=P:problem=kreska pseudotaktowa	!
2D\	.	2A/	.	2f#X\	.	2dd\	.
=25-	=25-	=25-	=25-	=25-	=25-	=25-	=25-
2GG/	-sti,	2G,</	-sti.	2g,<\	-sti,	2b,<\	-sti,
!LO:TX:t=P:problem=kreska pseudotaktowa	!	!LO:TX:t=P:problem=kreska pseudotaktowa	!	!	!	!LO:TX:t=P:problem=kreska pseudotaktowa	!
2r	.	2c\	quae	2e\	Quae	2r	.
2G\	quae	2d\	Ga-	2g\	Ga-	2b\	quae
1C/	Ga-	4c\	.	2g\	-bri-	2.cc\	Ga-
!	!	!LO:TX:t=P:problem=kreska pseudotaktowa	!	!	!	!	!
.	.	[4e\	.	.	.	.	.
=26-	=26-	=26-	=26-	=26-	=26-	=26-	=26-
.	.	4e\]	.	1g\	-e-	.	.
.	.	4e\	-bri-	.	.	4cc\	-bri-
!LO:TX:t=P:problem=kreska pseudotaktowa	!	!	!	!	!	!LO:TX:t=P:problem=kreska pseudotaktowa	!
2E\	-bri-	2B\	-e-	.	.	2g/	-e-
!	!	!LO:TX:t=P:problem=kreska pseudotaktowa	!	!	!	!LO:TX:t=P:problem=kreska pseudotaktowa	!
2D\	-e-	1d\	-lis	1f#X\	.	1a\,<	-lis
!LO:TX:t=P:problem=kreska pseudotaktowa	!	!	!	!	!	!	!
2D,<\	-lis	.	.	.	.	.	.
=27-	=27-	=27-	=27-	=27-	=27-	=27-	=27-
2G\	Ga-	2r	.	2g\	-lis	2.b\	Ga-
!	!	!	!	!LO:SIC:v:t=custos g	!	!	!
!	!	!LO:TX:t=P::problem=kreska pseudotaktowa&colon;między nutą a kropką	!	!LO:TX:t=P:problem=kreska pseudotaktowa	!	!	!
2.E\	.	2.e\	ar-	[<2g\	ar-	.	.
.	.	.	.	.	.	4b\	-bri-
!	!	!	!	!LO:TX:t=P:problem=brak zakonczenia ligatury	!	!	!
!	!	!	!	!LO:N:xstem:cue	!	!	!
.	.	.	.	4g\]	.	2cc\	-e-
4F\	-bri-	2A/	.	4c/	.	.	.
!LO:TX:t=P:problem=kreska pseudotaktowa	!	!	!	!	!	!	!
2D/	-e-	.	.	1fny\	.	2dd\	.
!	!	!LO:TX:t=P:problem=kreska pseudotaktowa	!	!	!	!	!
.	.	4B/	.	.	.	.	.
=28-	=28-	=28-	=28-	=28-	=28-	=28-	=28-
2C,</	-lis	4c\	.	.	.	2g,</	-lis
.	.	4G/	.	.	.	.	.
!	!	!LO:SIC:v:t=custos c	!	!LO:TX:t=P:problem=kreska pseudotaktowa	!	!LO:TX:t=P:problem=kreska pseudotaktowa	!
!LO:TX:t=P:problem=kreska pseudotaktowa	!	!LO:TX:t=P:problem=kreska pseudotaktowa	!	!	!	!	!
2C/	ar-	[<2c\	.	2e\	.	2g/	ar-
!	!	!LO:TX:t=P:problem=brak dokończenia ligatury	!	!	!	!	!
2.G\	-chan-	4c\]	.	2.d\	-chan-	2.g/	-chan-
.	.	8B\L	.	.	.	.	.
.	.	8A\J	.	.	.	.	.
.	.	2B\	.	.	.	.	.
!LO:TX:t=P:problem=kreska pseudotaktowa	!	!	!	!	!	!	!
4G\	-ge-	.	.	4d\	-ge-	4g/	-ge-
=29-	=29-	=29-	=29-	=29-	=29-	=29-	=29-
!LO:TX:t=P:problem=kreska pseudotaktowa	!	!	!	!	!	!	!
1C/	-li	2.c\	-chan-	2e,<\	-li	2g,</	-li
.	.	.	.	2e\	di-	2cc\	di-
!	!	!LO:TX:t=P:problem=kreska pseudotaktowa	!	!	!	!	!
.	.	4c\	-ge-	.	.	.	.
2r	.	1c\	-li	2.e\	ctis	2a,<\	-ctis
!LO:TX:t=P:problem=kreska pseudotaktowa	!	!	!	!	!	!LO:TX:t=P:problem=kreska pseudotaktowa	!
2C/	di-	.	.	.	.	2g/	cre-
.	.	.	.	4g\	.	.	.
=30-	=30-	=30-	=30-	=30-	=30-	=30-	=30-
!	!	!LO:TX:t=P:problem=kreska pseudotaktowa	!	!	!	!	!
2AA/	.	1r	.	2f\	cre-	2a\	.
!LO:TX:t=P:problem=kreska pseudotaktowa	!	!	!	!	!	!	!
2GG/	.	.	.	(4g\	-di-	2b\	-di-
.	.	.	.	4f\)	.	.	.
!LO:TX:t=P:problem=kreska pseudotaktowa	!	!	!	!	!	!	!
1C/	.	2r	.	4e\	-di-	4cc\	-di-
.	.	.	.	4d\	.	4b\	.
!	!	!	!	!LO:TX:t=P:problem=kreska pseudotaktowa	!	!	!
.	.	(2c\	di-	2c/	-sti,	4a\	.
.	.	.	.	.	.	4g\	.
=31-	=31-	=31-	=31-	=31-	=31-	=31-	=31-
!	!	!	!	!LO:TX:t=P:problem=kreska pseudotaktowa	!	!	!
2D,<\	-ctis	2A\)	.	1r	.	2f,</	sti
!LO:TX:t=P::problem=kreska pseudotaktowa&colon;między nutą a kropką	!	!LO:TX:t=P:problem=kreska pseudotaktowa	!	!	!	!	!
2.E\	cre-	2G,</	-ctis	.	.	1e/	cre-
.	.	2.c\	cre-	2r	.	.	.
4C/	.	.	.	.	.	.	.
!LO:TX:t=P:problem=kreska pseudotaktowa	!	!	!	!	!	!	!
[<2F\	.	.	.	(2c/	di-	1a\	.
.	.	4A\	-di-	.	.	.	.
=32-	=32-	=32-	=32-	=32-	=32-	=32-	=32-
!LO:N:xstem:cue	!	!	!	!	!	!	!
4F\]	.	2d\	-di-	2A/)	.	.	.
4D/	.	.	.	.	.	.	.
!LO:TX:t=P:problem=kreska pseudotaktowa	!	!LO:TX:t=P:problem=kreska pseudotaktowa	!	!LO:TX:t=P:problem=kreska pseudotaktowa	!	!	!
2G\	.	2d\	-sti	2G,</	-ctis	2b\	.
2F\	.	4f\	cre-	2.c\	cre-	2cc\	-di-
.	.	2e\	-di-	.	.	.	.
!LO:TX:t=P:problem=kreska pseudotaktowa	!	!	!	!	!	!	!
2A\	-di-	.	.	.	.	2.cc\	-di-
.	.	(8d\L	.	4c\	-di-	.	.
.	.	8c\J)	.	.	.	.	.
=33-	=33-	=33-	=33-	=33-	=33-	=33-	=33-
!LO:TX:t=P:problem=kreska pseudotaktowa	!	!	!	!	!	!	!
1G\	-di-	1d\	-dis-	1g\	-di-	.	.
.	.	.	.	.	.	8b\L	.
.	.	.	.	.	.	8a\J	.
.	.	.	.	.	.	2b\	.
2C,</	-sti,	2e,<\	-ti;	2g,<\	-sti;	2cc,<\	-sti,
!LO:TX:t=P:problem=kreska pseudotaktowa	!	!LO:TX:t=P:problem=kreska pseudotaktowa	!	!LO:TX:t=P:problem=kreska pseudotaktowa	!	!LO:TX:t=P:problem=kreska pseudotaktowa	!
2GG/	dum	2G/	dum	2g\	dum	2b\	dum
=34-	=34-	=34-	=34-	=34-	=34-	=34-	=34-
2C/	Vir-	2G/	vir-	2e\	Vir-	2cc\	Vir-
!LO:TX:t=P:problem=kreska pseudotaktowa	!	!	!	!	!	!	!
2AA/	-go	2c,<\	-go	2a\	-go	2cc,<\	-go
!LO:TX:t=P:problem=kreska pseudotaktowa	!	!	!	!	!	!LO:TX:t=P:problem=kreska pseudotaktowa	!
1D\	De-	(2A\	De-	1fn\	De-	1dd\	De-
.	.	2B\)	.	.	.	.	.
=35-	=35-	=35-	=35-	=35-	=35-	=35-	=35-
2C,</	-um	2c,<\	-um	2e,<\	-um	2g,</	-um
*	*ij	*	*ij	*	*ij	*	*
!LO:TX:t=P:problem=kreska pseudotaktowa	!	!	!	!	!	!	!
2G\	De-	2B\	De-	2g\	De-	2b\	De-
2E,<\	-um	2G,</	-um	2g,<\	-um	2b,<\	-um
*	*Xij	*	*Xij	*	*Xij	*	*
!LO:TX:t=P:problem=kreska pseudotaktowa	!	!	!	!LO:TX:t=P:problem=kreska pseudotaktowa	!	!	!
2C/	et	2c\	et	2g\	et	2cc\	et
=36-	=36-	=36-	=36-	=36-	=36-	=36-	=36-
2.G\	Ho-	2.B\	Ho-	2.g\	Ho-	2.dd\	Ho-
!	!	!LO:SIC:v:t= custos c	!	!	!	!	!
!LO:TX:t=P:problem=kreska pseudotaktowa	!	!LO:TX:t=P:problem=kreska pseudotaktowa	!	!	!	!	!
4G\	-mi-	4B\	-mi-	4g\	-mi-	4dd\	-mi-
!LO:TX:t=P:problem=kreska pseudotaktowa	!	!	!	!LO:TX:t=P:problem=kreska pseudotaktowa	!	!	!
1C/	-nem	2.c\	-nem	1g\	-nem	2cc,<\	-nem
!	!	!	!	!	!	!LO:TX:t=P:problem=kreska pseudotaktowa	!
.	.	.	.	.	.	2g/	ge-
.	.	4B\	et	.	.	.	.
=37-	=37-	=37-	=37-	=37-	=37-	=37-	=37-
!	!	!	!	!LO:TX:t=P:problem=kreska pseudotaktowa	!	!	!
2r	.	2.A/	Ho-	1r	.	2.a\	.
!LO:TX:t=P:problem=kreska pseudotaktowa	!	!	!	!	!	!	!
2F\	De-	.	.	.	.	.	.
.	.	4A/	-mi-	.	.	4b\	.
!	!	!LO:TX:t=P:problem=kreska pseudotaktowa	!	!	!	!	!
2C/	-um	1G/	-nem	2r	.	2cc\	.
!LO:TX:t=P:problem=kreska pseudotaktowa	!	!	!	!	!	!	!
2E\	et	.	.	1c\	ge-	2g/	-nu-
=38-	=38-	=38-	=38-	=38-	=38-	=38-	=38-
!	!	!LO:TX:t=P:problem=kreska pseudotaktowa	!	!	!	!	!
2.F\	ho-	1r	.	.	.	2.a\	-i-
!	!	!	!	!LO:TX:t=P:problem=kreska pseudotaktowa	!	!	!
.	.	.	.	2d\	.	.	.
!LO:TX:t=P:problem=kreska pseudotaktowa	!	!	!	!	!	!	!
4F\	-mi-	.	.	.	.	4b\	.
!LO:TX:t=P:problem=kreska pseudotaktowa	!	!	!	!	!	!LO:TX:t=P:problem=kreska pseudotaktowa	!
1C/	-nem	2r	.	1e\	.	1cc\,<	-sti
.	.	1c\	ge-	.	.	.	.
=39-	=39-	=39-	=39-	=39-	=39-	=39-	=39-
2F\	ge-	.	.	1f\	.	1.a\	ge-
!LO:TX:t=P:problem=kreska pseudotaktowa	!	!LO:TX:t=P:problem=kreska pseudotaktowa	!	!	!	!	!
2D\	-nu-	2d\	-nu-	.	.	.	.
2.A\	-i-	2e\	-i-	1e\	.	.	.
.	.	2A,</	-sti	.	.	2a\	-nu-
!LO:TX:t=P:problem=kreska pseudotaktowa	!	!	!	!	!	!	!
4G\	.	.	.	.	.	.	.
=40-	=40-	=40-	=40-	=40-	=40-	=40-	=40-
*	*	*	*ij	*	*	*	*
4E\	.	2e\	ge-	2g\	-nu-	1g\	-i-
4F\	.	.	.	.	.	.	.
!LO:TX:t=P:problem=kreska pseudotaktowa	!	!	!	!	!	!	!
2G\	.	2d\	-nu-	1g\	-i-	.	.
!LO:TX:t=P:problem=kreska pseudotaktowa	!	!LO:TX:t=P:problem=kreska pseudotaktowa	!	!	!	!	!
1D\	.	1d\	-i-	.	.	1a\	.
!	!	!	!	!LO:TX:t=P:problem=kreska pseudotaktowa	!	!	!
.	.	.	.	2f#X\	.	.	.
=41-	=41-	=41-	=41-	=41-	=41-	=41-	=41-
2GG,</	sti;	2d,<\	-sti	2g,<\	-sti,	2b,<\	sti,
*	*	*	*Xij	*	*	*	*
!LO:TX:t=P:problem=kreska pseudotaktowa	!	!	!	!	!	!LO:TX:t=P:problem=kreska pseudotaktowa	!
2C/	et	2G/	et	1g\	et	2cc\	et
!LO:TX:t=P:problem=kreska pseudotaktowa	!	!	!	!	!	!	!
1G\	post	1G/	post	.	.	2b\	post
.	.	.	.	2g\	post	2b\	par-
=42-	=42-	=42-	=42-	=42-	=42-	=42-	=42-
2D\	par-	2A/	par-	1fn\	par-	2a,<\	-tum
!LO:TX:t=P:problem=kreska pseudotaktowa	!	!	!	!	!	!	!
2F,<\	-tum	2A/	-tum	.	.	2a\	post
(2F\	Vir-	1Fny/	Vir-	2f,<\	-tum	(2a\	par-
!LO:TX:t=P:problem=kreska pseudotaktowa	!	!	!	!	!	!	!
2D/)	.	.	.	2f\	post	2b\	.
=43-	=43-	=43-	=43-	=43-	=43-	=43-	=43-
!LO:TX:t=P:problem=kreska pseudotaktowa	!	!	!	!	!	!	!
1C/	-go	2G,</	-go	2e\	par-	2cc,<\)	tum
!	!	!	!	!	!	!LO:TX:t=P:problem=kreska pseudotaktowa	!
.	.	2G/	post	1e\	-tum	2g/	Vir-
!LO:TX:a:t=1.	!	!	!	!	!	!	!
!LO:TX:t=P:problem=kreska pseudotaktowa	!	!	!	!	!	!	!
1r	.	1E/	par-	.	.	2g,</	-go
.	.	.	.	2e\	Vir-	2g/	in-
=44-	=44-	=44-	=44-	=44-	=44-	=44-	=44-
!	!	!	!	!LO:TX:t=P:problem=kreska pseudotaktowa	!	!	!
2r	.	2F/	-tum	1c\	-go	2a\	-vi-
!LO:TX:t=P:problem=kreska pseudotaktowa	!	!LO:TX:t=P:problem=kreska pseudotaktowa	!	!	!	!	!
2C/	post	2r	.	.	.	2g/	-o-
!	!	!	!	!LO:TX:t=P:problem=kreska pseudotaktowa	!	!	!
2BB/	par-	4G/	Vir-	1r	.	1g\	-la-
.	.	4F/	.	.	.	.	.
!LO:TX:t=P:problem=kreska pseudotaktowa	!	!	!	!	!	!	!
2C/	-tum	4E/	.	.	.	.	.
.	.	4D/	.	.	.	.	.
=45-	=45-	=45-	=45-	=45-	=45-	=45-	=45-
!LO:TX:t=P:problem=kreska pseudotaktowa	!	!	!	!	!	!	!
1AA/	Vir-	4C/	.	2r	.	1a\	.
.	.	4D/	.	.	.	.	.
.	.	4E/	.	2c/	in-	.	.
.	.	4C/	.	.	.	.	.
2GG,</	-go	2D/	.	2B/	-vi-	2b\	.
!LO:TX:t=P:problem=kreska pseudotaktowa	!	!LO:TX:t=P:problem=kreska pseudotaktowa	!	!	!	!	!
2C/	in-	2C/	-go,	2c/	-o-	2.g/	.
=46-	=46-	=46-	=46-	=46-	=46-	=46-	=46-
!	!	!LO:TX:t=P:problem=kreska pseudotaktowa	!	!	!	!	!
2C/	-vi-	1r	.	1A/	-la-	.	.
.	.	.	.	.	.	8fn/L	.
.	.	.	.	.	.	8e/J	.
!LO:TX:t=P:problem=kreska pseudotaktowa	!	!	!	!	!	!	!
2D\	-o-	.	.	.	.	2f/	.
!	!	!	!	!	!	!LO:TX:t=P:problem=kreska pseudotaktowa	!
2E\	-la-	2r	.	2G,</	-ta	0g\	-ta
!LO:TX:t=P:problem=kreska pseudotaktowa	!	!	!	!	!	!	!
2C/	.	2c\	in-	2c\	per-	.	.
=47-	=47-	=47-	=47-	=47-	=47-	=47-	=47-
2G\	.	2B\	-vi-	2d\	.	.	.
!LO:TX:t=P:problem=kreska pseudotaktowa	!	!	!	!	!	!	!
2E\	-ta	2c\	-o-	2e\	.	.	.
4F\	per-	1A\	-la-	2c/	.	2r	.
4G\	.	.	.	.	.	.	.
!	!	!	!	!LO:SIC:v:t=custos d	!	!	!
!	!	!	!	!LO:TX:t=P:problem=kreska pseudotaktowa	!	!	!
4A\	.	.	.	2f\	-man-	2cc\	per-
!LO:TX:t=P:problem=kreska pseudotaktowa	!	!	!	!	!	!	!
4F\	.	.	.	.	.	.	.
=48-	=48-	=48-	=48-	=48-	=48-	=48-	=48-
2G\	.	2G,</	-ta	2d\	-si-	2b\	.
!LO:SIC:v:t=custos F	!	!	!	!	!	!	!
!LO:TX:t=P:problem=kreska pseudotaktowa	!	!	!	!	!	!	!
2C/	man-	1c\	per-	1e\	.	2cc\	-man-
!LO:TX:t=P:problem=kreska pseudotaktowa	!	!	!	!	!	!	!
1F\	-si-	.	.	.	.	1a\	-ſi-
!	!	!LO:TX:t=P:problem=kreska pseudotaktowa	!	!LO:TX:t=P:problem=kreska pseudotaktowa	!	!	!
.	.	2d\	.	2d\	-sti,	.	.
=49-	=49-	=49-	=49-	=49-	=49-	=49-	=49-
2E,<\	-sti,	1.e\	.	2r	.	2g,</	-sti
!LO:TX:t=P:problem=kreska pseudotaktowa	!	!	!	!	!	!LO:N:vis=1.	!
2C/	per-	.	.	2c/	per-	1g\	per-
2.E\	.	.	.	2.B/	-man-	.	.
.	.	2e\	-man-	.	.	4ryy	.
!LO:TX:t=P:problem=kreska pseudotaktowa	!	!	!	!	!	!	!
4F\	.	.	.	4A/	.	4a\	.
=50-	=50-	=50-	=50-	=50-	=50-	=50-	=50-
2G\	.	2d\	-si-	4B/	.	2b\	.
.	.	.	.	4G/	.	.	.
!LO:TX:t=P:problem=kreska pseudotaktowa	!	!	!	!	!	!LO:TX:t=P:problem=kreska pseudotaktowa	!
2E\	-man-	2G/	.	1g\	-si-	2cc\	-man-
!LO:TX:t=P:problem=kreska pseudotaktowa	!	!	!	!	!	!	!
1D\	-si-	1A\	.	.	.	1dd\	-si-
.	.	.	.	2f#X\	.	.	.
=51-	=51-	=51-	=51-	=51-	=51-	=51-	=51-
2GG/	-ſti,	2G,</	-sti.	2g\	-sti;	2b,<\	-ſti
!LO:TX:t=P:problem=kreska pseudotaktowa	!	!	!	!LO:TX:t=P:problem=kreska pseudotaktowa	!	!LO:TX:t=P:problem=kreska pseudotaktowa	!
2r	.	2G/	De-	2r	.	2r	.
!LO:SIC:v:t=custos C	!	!	!	!	!	!	!
!LO:TX:b:t=Vertat(ur)	!	!	!	!	!	!	!
!LO:TX:t=P:problem=kreska pseudotaktowa	!	!	!	!	!	!	!
0r	.	2c\	.	(1c\	De-	2g/	De-
!	!	!LO:TX:t=P:problem=kreska pseudotaktowa	!	!	!	!	!
.	.	2A\	-i	.	.	1cc\	.
=52-	=52-	=52-	=52-	=52-	=52-	=52-	=52-
.	.	2.d\	Ge-	2fny\)	.	.	.
.	.	.	.	2d\	-i	2b\	-i
.	.	4d\	-ni-	.	.	.	.
!LO:TX:t=P:problem=kreska pseudotaktowa	!	!LO:TX:t=P:problem=kreska pseudotaktowa	!	!	!	!	!
(1C/	De-	1c\	-trix	2.e\	Ge-	2.cc\	Ge-
!	!	!	!	!	!	!LO:SIC:v:t=custos b	!
!	!	!	!	!LO:TX:t=P:problem=kreska pseudotaktowa	!	!LO:TX:t=P:problem=kreska pseudotaktowa	!
.	.	.	.	4e\	-ni-	4cc\	ni-
=53-	=53-	=53-	=53-	=53-	=53-	=53-	=53-
2G\)	.	2r	.	2d,<\	-trix	2b,<\	-trix
*	*	*	*ij	*	*ij	*	*
2E,<\	-i	1e\	Ge-	1g\	De-	(<2g/	De-
!LO:TX:t=P:problem=kreska pseudotaktowa	!	!	!	!	!	!	!
2.A\	Ge-	.	.	.	.	2cc\)	.
!	!	!	!	!	!	!LO:TX:t=P:problem=kreska pseudotaktowa	!
.	.	2c\	.	2f#X\	-i	2a\	-i
4A\	-ni-	.	.	.	.	.	.
=54-	=54-	=54-	=54-	=54-	=54-	=54-	=54-
!LO:TX:t=P:problem=kreska pseudotaktowa	!	!	!	!	!	!	!
1G\	-trix	2.B\	.	2.g\	Ge-	2.dd\	Ge-
.	.	4B\	-ni-	4g\	-ni-	4dd\	-ni-
!	!	!LO:TX:t=P:problem=kreska pseudotaktowa	!	!	!	!	!
2r	.	1c\	-trix	2e,<\	-trix	2g,</	-trix,
*	*ij	*	*Xij	*	*Xij	*	*
1F\	De-	.	.	1fny\	De-	2cc\	De-
=55-	=55-	=55-	=55-	=55-	=55-	=55-	=55-
!	!	!LO:TX:t=P:problem=kreska pseudotaktowa	!	!	!	!	!
.	.	1r	.	.	.	2.a\	.
!LO:TX:t=P:problem=kreska pseudotaktowa	!	!	!	!LO:TX:t=P:problem=kreska pseudotaktowa	!	!	!
2D\	-i	.	.	2f\	-i	.	.
!	!	!	!	!	!	!LO:TX:t=P:problem=kreska pseudotaktowa	!
.	.	.	.	.	.	4b\	-i
2.A\	Ge-	2r	.	2.e\	Ge-	2.cc\	Ge-
.	.	(2c\	in-	.	.	.	.
!LO:TX:t=P:problem=kreska pseudotaktowa	!	!	!	!	!	!	!
4A\	-ni-	.	.	4f\	-ni-	4cc\	-ni-
=56-	=56-	=56-	=56-	=56-	=56-	=56-	=56-
2G,<\	-trix	2d\)	.	2g,<\	-trix	2b\	-trix
*	*Xij	*	*	*	*	*	*
1C/	in-	1e\	-ter-	1g\	in-	1cc\	in-
!	!	!LO:SIC:v:custos e	!	!	!	!LO:TX:t=P:problem=kreska pseudotaktowa	!
!	!	!LO:TX:t=P:problem=kreska pseudotaktowa	!	!	!	!	!
2GG/	-ter-	2d\	.	2g\	-ter-	2dd\	-ter-
=57-	=57-	=57-	=57-	=57-	=57-	=57-	=57-
2.C/	-ce-	2.e\	-ce-	(2.g\	-ce-	2.cc\	-ce-
!LO:TX:t=P:problem=kreska pseudotaktowa	!	!	!	!	!	!	!
4D\	.	8d\L	.	4f\)	.	8b\L	.
.	.	8c\J	.	.	.	8a\J	.
2.E,<\	-de	2B\	-de	2.g,<\	-de	2g,</	-de
.	.	2e\	pro	.	.	1cc\	pro
!LO:TX:t=P:problem=kreska pseudotaktowa	!	!	!	!	!	!	!
4F\	pro	.	.	4a\	pro	.	.
=58-	=58-	=58-	=58-	=58-	=58-	=58-	=58-
1G\	no-	1d\	no-	1.g\	.	.	.
!	!	!	!	!	!	!LO:TX:t=P:problem=kreska pseudotaktowa	!
.	.	.	.	.	.	2b\	no-
!LO:TX:t=P:problem=kreska pseudotaktowa	!	!	!	!	!	!LO:TX:t=P:problem=kreska pseudotaktowa	!
1C/	-bis	1c\	.	.	.	1cc\	-bis
.	.	.	.	2e\	no-	.	.
=59-	=59-	=59-	=59-	=59-	=59-	=59-	=59-
!	!	!LO:TX:t=P:problem=kreska pseudotaktowa	!	!	!	!	!
2r	.	1B\,<	-bis	1g\	.	2r	.
1G\	De-	.	.	.	.	1b\	De-
!	!	!	!	!LO:TX:t=P:problem=kreska pseudotaktowa	!	!	!
.	.	0r	.	1g\	-bis	.	.
!LO:TX:t=P:problem=kreska pseudotaktowa	!	!	!	!	!	!LO:TX:t=P:problem=kreska pseudotaktowa	!
2E\	-i	.	.	.	.	2g/	-i
=60-	=60-	=60-	=60-	=60-	=60-	=60-	=60-
2.A\	Ge-	.	.	00r	.	2.cc\	Ge-
4A\	-ni-	.	.	.	.	4cc\	-ni-
2G,<\	-trix	2G/	in-	.	.	2b,<\	-trix
!LO:TX:t=P:problem=kreska pseudotaktowa	!	!	!	!	!	!	!
2C/	in-	2G/	-ter-	.	.	2.g/	in-
=61-	=61-	=61-	=61-	=61-	=61-	=61-	=61-
2C/	-ter-	1c\	-ce-	.	.	.	.
.	.	.	.	.	.	4c/	-ter-
!	!	!	!	!	!	!LO:SIC:v:t=custos g	!
!LO:TX:t=P:problem=kreska pseudotaktowa	!	!	!	!	!	!LO:TX:t=P:problem=kreska pseudotaktowa	!
2C/	-ce-	.	.	.	.	2g/	-ce-
2BB,</	-de	2d,<\	-de	.	.	2g,</	-de
!LO:TX:t=P:problem=kreska pseudotaktowa	!	!	!	!	!	!	!
2C/	p[ro]	2.e\	pro	.	.	1g\	pro
=62-	=62-	=62-	=62-	=62-	=62-	=62-	=62-
!	!	!	!	!LO:SIC:v:t=custos g	!	!	!
!	!	!	!	!LO:TX:b:t=Vertat(ur)	!	!	!
!	!	!	!	!LO:TX:t=P:problem=kreska pseudotaktowa	!	!	!
1AA/	no-	.	.	1r	.	.	.
.	.	4d\	.	.	.	.	.
!	!	!LO:TX:t=P:problem=kreska pseudotaktowa	!	!	!	!LO:TX:t=P:problem=kreska pseudotaktowa	!
.	.	2c\	.	.	.	2f#X/	.
!LO:TX:t=P:problem=kreska pseudotaktowa	!	!	!	!	!	!	!
1GG/	-bis	(2c\	no-	2r	.	2.g/	no-
!	!	!	!	!LO:TX:t=P:problem=kreska pseudotaktowa	!	!	!
.	.	2B\)	.	2g\	in-	.	.
.	.	.	.	.	.	4fny/	.
=63-	=63-	=63-	=63-	=63-	=63-	=63-	=63-
!	!	!	!	!LO:TX:t=P:problem=kreska pseudotaktowa	!	!	!
2r	.	2c,<\	-bis	1g\	-ter-	2e,</	-bis
!LO:TX:t=P:problem=kreska pseudotaktowa	!	!LO:TX:t=P:problem=kreska pseudotaktowa	!	!	!	!	!
2C/	in-	2c\	in-	.	.	2cc\	in-
2C/	-ter-	2c\	-ter-	4g\	-ce-	2cc\	-ter-
.	.	.	.	4f\	.	.	.
2C/	-ce-	2G/	-ce-	4g\	.	2cc\	-ce-
!	!	!	!	!LO:TX:t=P:problem=kreska pseudotaktowa	!	!	!
.	.	.	.	4a\	.	.	.
=64-	=64-	=64-	=64-	=64-	=64-	=64-	=64-
2G,<\	-de	2B,<\	-de	2g,<\	-de	2b,<\	-de
!LO:TX:t=P:problem=kreska pseudotaktowa	!	!	!	!	!	!LO:TX:t=P:problem=kreska pseudotaktowa	!
2C/	p[ro]	2c\	pro	2g\	pro	2g/	pro
1D\	no-	1A\	no-	2g\	no-	1dd\	no-
.	.	.	.	2f#X\	.	.	.
=65-	=65-	=65-	=65-	=65-	=65-	=65-	=65-
!	!	!LO:TX:t=P:problem=kreska pseudotaktowa	!	!LO:TX:t=P:problem=kreska pseudotaktowa	!	!	!
1GG/,	-bis	1.G/,<	-bis,	1g\,<	-bis	1b\,<	-bis
(<2C/	p[ro]	.	.	2e\	pro	1g\	pro
!	!	!	!	!LO:TX:t=P:problem=kreska pseudotaktowa	!	!	!
2E\)	.	2G/	pro	[<2g\	no-	.	.
=66-	=66-	=66-	=66-	=66-	=66-	=66-	=66-
0D\	no-	0A\	no-	2g\]	.	1.dd\	no-
.	.	.	.	4f#X\	.	.	.
!	!	!	!	!LO:TX:t=P:problem=kreska pseudotaktowa	!	!	!
.	.	.	.	4e\	.	.	.
.	.	.	.	1f#X\	.	.	.
.	.	.	.	.	.	2a/	.
=67-	=67-	=67-	=67-	=67-	=67-	=67-	=67-
0GG/;	-bis.	0G/;	-bis.	0g\;	-bis.	0b\;	-bis.
==	==	==	==	==	==	==	==
*-	*-	*-	*-	*-	*-	*-	*-
!!!RDF**kern: > = above
!!!RDF**kern: < = below
!!!system-decoration: [(s1,s2,s3,s4)]
!!!EED: Andrzej Borzym
!!!EST: 2021-03-14
!!!AIN: 1 alto 1 bass 1 soprn 1 tenor
!!!ENC: Krzysztof Stępień
!!!END: 2021-02-25
